X: 0
T: All Hail To The Days
Z: Public Domain
L: 1/4
M: 6/8
Q: 1/4=125
V: P1 name="Traditional Music Librar"
%%MIDI program 1 1
V: P2 name="Staff"
%%MIDI program 2 32
V: P3 name="Staff-2"
%%MIDI program 3 25
K: F
[V: P1]  D/F3/4E/4 D/ B | d/c3/4B/4 A/ f | F/ G A/B3/4c/4 | B/ A- A/ A | D/F3/4E/4 D/ A | B/c3/4B/4 A/ f | F/ G A/B3/4c/4 | B/ A- A/ A | D/F3/4E/4 D/ B | d/c3/4B/4 A/ f | F/ G A/B3/4c/4 | B/ A- A/ A | D/F3/4E/4 D/ A | B/c3/4B/4 A/ f | F/ G A/B3/4c/4 | B/ A- A/ A | d/c3/4B/4 A/ c | c/B3/4A/4 G/ B | B/A3/4G/4 F/ E | D/ f- f/ f | d/c3/4B/4 A/ c | c/B3/4A/4 G/ B | B/A3/4G/4 F/E3/4D/4 | E/ D- D/ D | d/c3/4B/4 A/ c | c/B3/4A/4 G/ B | B/A3/4G/4 F/ E | D/ f- f/ f | d/c3/4B/4 A/ c | c/B3/4A/4 G/ B | B/A3/4G/4 F/E3/4D/4 | E/ D- D/ D | D/F3/4E/4 D/ B | d/c3/4B/4 A/ f | F/ G A/B3/4c/4 | B/ A- A/ A | D/F3/4E/4 D/ A | B/c3/4B/4 A/ f | F/ G A/B3/4c/4 | B/ A- A/ A | D/F3/4E/4 D/ B | d/c3/4B/4 A/ f | F/ G A/B3/4c/4 | B/ A- A/ A | D/F3/4E/4 D/ A | B/c3/4B/4 A/ f | F/ G A/B3/4c/4 | B/ A- A/ A | d/c3/4B/4 A/ c | c/B3/4A/4 G/ B | B/A3/4G/4 F/ E | D/ f- f/ f | d/c3/4B/4 A/ c | c/B3/4A/4 G/ B | B/A3/4G/4 F/E3/4D/4 | E/ D- D/ D | d/c3/4B/4 A/ c | c/B3/4A/4 G/ B | B/A3/4G/4 F/ E | D/ f- f/ f | d/c3/4B/4 A/ c | c/B3/4A/4 G/ B | B/A3/4G/4 F/E3/4D/4 | E/ D- D/ D | D/F3/4E/4 D/ B | d/c3/4B/4 A/ f | F/ G A/B3/4c/4 | B/ A- A/ A | D/F3/4E/4 D/ A | B/c3/4B/4 A/ f | F/ G A/B3/4c/4 | B/ A- A/ A | D/F3/4E/4 D/ B | d/c3/4B/4 A/ f | F/ G A/B3/4c/4 | B/ A- A/ A | D/F3/4E/4 D/ A | B/c3/4B/4 A/ f | F/ G A/B3/4c/4 | B/ A- A/ A | d/c3/4B/4 A/ c | c/B3/4A/4 G/ B | B/A3/4G/4 F/ E | D/ f- f/ f | d/c3/4B/4 A/ c | c/B3/4A/4 G/ B | B/A3/4G/4 F/E3/4D/4 | E/ D- D/ D | d/c3/4B/4 A/ c | c/B3/4A/4 G/ B | B/A3/4G/4 F/ E | D/ f- f/ f | d/c3/4B/4 A/ c | c/B3/4A/4 G/ B | B/A3/4G/4 F/E3/4D/4 | E/ D- D/ D | D/F3/4E/4 D/ B | d/c3/4B/4 A/ f | F/ G A/B3/4c/4 | B/ A- A/ A | D/F3/4E/4 D/ A | B/c3/4B/4 A/ f | F/ G A/B3/4c/4 | B/ A- A/ A | D/F3/4E/4 D/ B | d/c3/4B/4 A/ f | F/ G A/B3/4c/4 | B/ A- A/ A | D/F3/4E/4 D/ A | B/c3/4B/4 A/ f | F/ G A/B3/4c/4 | B/ A- A/ A | d/c3/4B/4 A/ c | c/B3/4A/4 G/ B | B/A3/4G/4 F/ E | D/ f- f/ f | d/c3/4B/4 A/ c | c/B3/4A/4 G/ B | B/A3/4G/4 F/E3/4D/4 | E/ D- D/ D | d/c3/4B/4 A/ c | c/B3/4A/4 G/ B | B/A3/4G/4 F/ E | D/ f- f/ f | d/c3/4B/4 A/ c | c/B3/4A/4 G/ B | B/A3/4G/4 F/E3/4D/4 | E/ D- D/ D | D/F3/4E/4 D/ B | d/c3/4B/4 A/ f | F/ G A/B3/4c/4 | B/ A- A/ A | D/F3/4E/4 D/ A | B/c3/4B/4 A/ f | F/ G A/B3/4c/4 | B/ A- A/ A | D/F3/4E/4 D/ B | d/c3/4B/4 A/ f | F/ G A/B3/4c/4 | B/ A- A/ A | D/F3/4E/4 D/ A | B/c3/4B/4 A/ f | F/ G A/B3/4c/4 | B/ A- A/ A | d/c3/4B/4 A/ c | c/B3/4A/4 G/ B | B/A3/4G/4 F/ E | D/ f- f/ f | d/c3/4B/4 A/ c | c/B3/4A/4 G/ B | B/A3/4G/4 F/E3/4D/4 | E/ D- D/ D | d/c3/4B/4 A/ c | c/B3/4A/4 G/ B | B/A3/4G/4 F/ E | D/ f- f/ f | d/c3/4B/4 A/ c | c/B3/4A/4 G/ B | B/A3/4G/4 F/E3/4D/4 | E/ D- D/ D | D/F3/4E/4 D/ B | d/c3/4B/4 A/ f | F/ G A/B3/4c/4 | B/ A- A/ A | D/F3/4E/4 D/ A | B/c3/4B/4 A/ f | F/ G A/B3/4c/4 | B/ A- A/ A | D/F3/4E/4 D/ B | d/c3/4B/4 A/ f | F/ G A/B3/4c/4 | B/ A- A/ A | D/F3/4E/4 D/ A | B/c3/4B/4 A/ f | F/ G A/B3/4c/4 | B/ A- A/ A | d/c3/4B/4 A/ c | c/B3/4A/4 G/ B | B/A3/4G/4 F/ E | D/ f- f/ f | d/c3/4B/4 A/ c | c/B3/4A/4 G/ B | B/A3/4G/4 F/E3/4D/4 | E/ D- D/ D | d/c3/4B/4 A/ c | c/B3/4A/4 G/ B | B/A3/4G/4 F/ E | D/ f- f/ f | d/c3/4B/4 A/ c | c/B3/4A/4 G/ B | B/A3/4G/4 F/E3/4D/4 | E/ D- D/ D | D/F3/4E/4 D/ B | d/c3/4B/4 A/ f | F/ G A/B3/4c/4 | B/ A- A/ A | D/F3/4E/4 D/ A | B/c3/4B/4 A/ f | F/ G A/B3/4c/4 | B/ A- A/ A | D/F3/4E/4 D/ B | d/c3/4B/4 A/ f | F/ G A/B3/4c/4 | B/ A- A/ A | D/F3/4E/4 D/ A | B/c3/4B/4 A/ f | F/ G A/B3/4c/4 | B/ A- A/ A | d/c3/4B/4 A/ c | c/B3/4A/4 G/ B | B/A3/4G/4 F/ E | D/ f- f/ f | d/c3/4B/4 A/ c | c/B3/4A/4 G/ B | B/A3/4G/4 F/E3/4D/4 | E/ D- D/ D | d/c3/4B/4 A/ c | c/B3/4A/4 G/ B | B/A3/4G/4 F/ E | D/ f- f/ f | d/c3/4B/4 A/ c | c/B3/4A/4 G/ B | B/A3/4G/4 F/E3/4D/4 | E/ D- D/ D | D/F3/4E/4 D/ B | d/c3/4B/4 A/ f | F/ G A/B3/4c/4 | B/ A- A/ A | D/F3/4E/4 D/ A | B/c3/4B/4 A/ f | F/ G A/B3/4c/4 | B/ A- A/ A | D/F3/4E/4 D/ B | d/c3/4B/4 A/ f | F/ G A/B3/4c/4 | B/ A- A/ A | D/F3/4E/4 D/ A | B/c3/4B/4 A/ f | F/ G A/B3/4c/4 | B/ A- A/ A | d/c3/4B/4 A/ c | c/B3/4A/4 G/ B | B/A3/4G/4 F/ E | D/ f- f/ f | d/c3/4B/4 A/ c | c/B3/4A/4 G/ B | B/A3/4G/4 F/E3/4D/4 | E/ D- D/ D | d/c3/4B/4 A/ c | c/B3/4A/4 G/ B | B/A3/4G/4 F/ E | D/ f- f/ f | d/c3/4B/4 A/ c | c/B3/4A/4 G/ B | B/A3/4G/4 F/E3/4D/4 | E/ D- D/ D | D/F3/4E/4 D/ B | d/c3/4B/4 A/ f | F/ G A/B3/4c/4 | B/ A- A/ A | D/F3/4E/4 D/ A | B/c3/4B/4 A/ f | F/ G A/B3/4c/4 | B/ A- A/ A | D/F3/4E/4 D/ B | d/c3/4B/4 A/ f | F/ G A/B3/4c/4 | B/ A- A/ A | D/F3/4E/4 D/ A | B/c3/4B/4 A/ f | F/ G A/B3/4c/4 | B/ A- A/ A | d/c3/4B/4 A/ c | c/B3/4A/4 G/ B | B/A3/4G/4 F/ E | D/ f- f/ f | d/c3/4B/4 A/ c | c/B3/4A/4 G/ B | B/A3/4G/4 F/E3/4D/4 | E/ D- D/ D | d/c3/4B/4 A/ c | c/B3/4A/4 G/ B | B/A3/4G/4 F/ E | D/ f- f/ f | d/c3/4B/4 A/ c | c/B3/4A/4 G/ B | B/A3/4G/4 F/E3/4D/4 | E/ D- D/ D | D/F3/4E/4 D/ B | d/c3/4B/4 A/ f | F/ G A/B3/4c/4 | B/ A- A/ A | D/F3/4E/4 D/ A | B/c3/4B/4 A/ f | F/ G A/B3/4c/4 | B/ A- A/ A | D/F3/4E/4 D/ B | d/c3/4B/4 A/ f | F/ G A/B3/4c/4 | B/ A- A/ A | D/F3/4E/4 D/ A | B/c3/4B/4 A/ f | F/ G A/B3/4c/4 | B/ A- A/ A | d/c3/4B/4 A/ c | c/B3/4A/4 G/ B | B/A3/4G/4 F/ E | D/ f- f/ f | d/c3/4B/4 A/ c | c/B3/4A/4 G/ B | B/A3/4G/4 F/E3/4D/4 | E/ D- D/ D | d/c3/4B/4 A/ c | c/B3/4A/4 G/ B | B/A3/4G/4 F/ E | D/ f- f/ f | d/c3/4B/4 A/ c | c/B3/4A/4 G/ B | B/A3/4G/4 F/E3/4D/4 | E/ D- D/ D | D/F3/4E/4 D/ B | d/c3/4B/4 A/ f | F/ G A/B3/4c/4 | B/ A- A/ A | D/F3/4E/4 D/ A | B/c3/4B/4 A/ f | F/ G A/B3/4c/4 | B/ A- A/ A | D/F3/4E/4 D/ B | d/c3/4B/4 A/ f | F/ G A/B3/4c/4 | B/ A- A/ A | D/F3/4E/4 D/ A | B/c3/4B/4 A/ f | F/ G A/B3/4c/4 | B/ A- A/ A | d/c3/4B/4 A/ c | c/B3/4A/4 G/ B | B/A3/4G/4 F/ E | D/ f- f/ f | d/c3/4B/4 A/ c | c/B3/4A/4 G/ B | B/A3/4G/4 F/E3/4D/4 | E/ D- D/ D | d/c3/4B/4 A/ c | c/B3/4A/4 G/ B | B/A3/4G/4 F/ E | D/ f- f/ f | d/c3/4B/4 A/ c | c/B3/4A/4 G/ B | B/A3/4G/4 F/E3/4D/4 | E/ D- D/ D | D/F3/4E/4 D/ B | d/c3/4B/4 A/ f | F/ G A/B3/4c/4 | B/ A- A/ A | D/F3/4E/4 D/ A | B/c3/4B/4 A/ f | F/ G A/B3/4c/4 | B/ A- A/ A | D/F3/4E/4 D/ B | d/c3/4B/4 A/ f | F/ G A/B3/4c/4 | B/ A- A/ A | D/F3/4E/4 D/ A | B/c3/4B/4 A/ f | F/ G A/B3/4c/4 | B/ A- A/ A | d/c3/4B/4 A/ c | c/B3/4A/4 G/ B | B/A3/4G/4 F/ E | D/ f- f/ f | d/c3/4B/4 A/ c | c/B3/4A/4 G/ B | B/A3/4G/4 F/E3/4D/4 | E/ D- D/ D | d/c3/4B/4 A/ c | c/B3/4A/4 G/ B | B/A3/4G/4 F/ E | D/ f- f/ f | d/c3/4B/4 A/ c | c/B3/4A/4 G/ B | B/A3/4G/4 F/E3/4D/4 | E/ D- D/ D|]
[V: P2]  D,,/ B,,z/ D,, |z/ C,,z/ F,, |z/ C,,z/ C,, |z/ A,,z/ D,, |z/ B,,z/ A,, |z/ C,,z/ F,, |z/ C,,z/ C,, |z/ A,,z/ A,, |z/ B,,z/ D,, |z/ C,,z/ F,, |z/ C,,z/ C,, |z/ A,,z/ D,, |z/ B,,z/ A,, |z/ C,,z/ F,, |z/ C,,z/ C,, |z/ A,,z/ A,, |z/ C,,z/ C,, |z/ C,,z/ B,, |z/ F,,z/ C,, |z/ F,,z/ B,, |z/ C,,z/ C,, |z/ C,,z/ B,, |z/ F,,z/ C,, |z/ D,,z/ D,, |z/ C,,z/ C,, |z/ C,,z/ B,, |z/ F,,z/ C,, |z/ F,,z/ B,, |z/ C,,z/ C,, |z/ C,,z/ B,, |z/ F,,z/ C,, |z/ D,,z/ D,, | D,,/ B,,z/ D,, |z/ C,,z/ F,, |z/ C,,z/ C,, |z/ A,,z/ D,, |z/ B,,z/ A,, |z/ C,,z/ F,, |z/ C,,z/ C,, |z/ A,,z/ A,, |z/ B,,z/ D,, |z/ C,,z/ F,, |z/ C,,z/ C,, |z/ A,,z/ D,, |z/ B,,z/ A,, |z/ C,,z/ F,, |z/ C,,z/ C,, |z/ A,,z/ A,, |z/ C,,z/ C,, |z/ C,,z/ B,, |z/ F,,z/ C,, |z/ F,,z/ B,, |z/ C,,z/ C,, |z/ C,,z/ B,, |z/ F,,z/ C,, |z/ D,,z/ D,, |z/ C,,z/ C,, |z/ C,,z/ B,, |z/ F,,z/ C,, |z/ F,,z/ B,, |z/ C,,z/ C,, |z/ C,,z/ B,, |z/ F,,z/ C,, |z/ D,,z/ D,, | D,,/ B,,z/ D,, |z/ C,,z/ F,, |z/ C,,z/ C,, |z/ A,,z/ D,, |z/ B,,z/ A,, |z/ C,,z/ F,, |z/ C,,z/ C,, |z/ A,,z/ A,, |z/ B,,z/ D,, |z/ C,,z/ F,, |z/ C,,z/ C,, |z/ A,,z/ D,, |z/ B,,z/ A,, |z/ C,,z/ F,, |z/ C,,z/ C,, |z/ A,,z/ A,, |z/ C,,z/ C,, |z/ C,,z/ B,, |z/ F,,z/ C,, |z/ F,,z/ B,, |z/ C,,z/ C,, |z/ C,,z/ B,, |z/ F,,z/ C,, |z/ D,,z/ D,, |z/ C,,z/ C,, |z/ C,,z/ B,, |z/ F,,z/ C,, |z/ F,,z/ B,, |z/ C,,z/ C,, |z/ C,,z/ B,, |z/ F,,z/ C,, |z/ D,,z/ D,, | D,,/ B,,z/ D,, |z/ C,,z/ F,, |z/ C,,z/ C,, |z/ A,,z/ D,, |z/ B,,z/ A,, |z/ C,,z/ F,, |z/ C,,z/ C,, |z/ A,,z/ A,, |z/ B,,z/ D,, |z/ C,,z/ F,, |z/ C,,z/ C,, |z/ A,,z/ D,, |z/ B,,z/ A,, |z/ C,,z/ F,, |z/ C,,z/ C,, |z/ A,,z/ A,, |z/ C,,z/ C,, |z/ C,,z/ B,, |z/ F,,z/ C,, |z/ F,,z/ B,, |z/ C,,z/ C,, |z/ C,,z/ B,, |z/ F,,z/ C,, |z/ D,,z/ D,, |z/ C,,z/ C,, |z/ C,,z/ B,, |z/ F,,z/ C,, |z/ F,,z/ B,, |z/ C,,z/ C,, |z/ C,,z/ B,, |z/ F,,z/ C,, |z/ D,,z/ D,, | D,,/ B,,z/ D,, |z/ C,,z/ F,, |z/ C,,z/ C,, |z/ A,,z/ D,, |z/ B,,z/ A,, |z/ C,,z/ F,, |z/ C,,z/ C,, |z/ A,,z/ A,, |z/ B,,z/ D,, |z/ C,,z/ F,, |z/ C,,z/ C,, |z/ A,,z/ D,, |z/ B,,z/ A,, |z/ C,,z/ F,, |z/ C,,z/ C,, |z/ A,,z/ A,, |z/ C,,z/ C,, |z/ C,,z/ B,, |z/ F,,z/ C,, |z/ F,,z/ B,, |z/ C,,z/ C,, |z/ C,,z/ B,, |z/ F,,z/ C,, |z/ D,,z/ D,, |z/ C,,z/ C,, |z/ C,,z/ B,, |z/ F,,z/ C,, |z/ F,,z/ B,, |z/ C,,z/ C,, |z/ C,,z/ B,, |z/ F,,z/ C,, |z/ D,,z/ D,, | D,,/ B,,z/ D,, |z/ C,,z/ F,, |z/ C,,z/ C,, |z/ A,,z/ D,, |z/ B,,z/ A,, |z/ C,,z/ F,, |z/ C,,z/ C,, |z/ A,,z/ A,, |z/ B,,z/ D,, |z/ C,,z/ F,, |z/ C,,z/ C,, |z/ A,,z/ D,, |z/ B,,z/ A,, |z/ C,,z/ F,, |z/ C,,z/ C,, |z/ A,,z/ A,, |z/ C,,z/ C,, |z/ C,,z/ B,, |z/ F,,z/ C,, |z/ F,,z/ B,, |z/ C,,z/ C,, |z/ C,,z/ B,, |z/ F,,z/ C,, |z/ D,,z/ D,, |z/ C,,z/ C,, |z/ C,,z/ B,, |z/ F,,z/ C,, |z/ F,,z/ B,, |z/ C,,z/ C,, |z/ C,,z/ B,, |z/ F,,z/ C,, |z/ D,,z/ D,, | D,,/ B,,z/ D,, |z/ C,,z/ F,, |z/ C,,z/ C,, |z/ A,,z/ D,, |z/ B,,z/ A,, |z/ C,,z/ F,, |z/ C,,z/ C,, |z/ A,,z/ A,, |z/ B,,z/ D,, |z/ C,,z/ F,, |z/ C,,z/ C,, |z/ A,,z/ D,, |z/ B,,z/ A,, |z/ C,,z/ F,, |z/ C,,z/ C,, |z/ A,,z/ A,, |z/ C,,z/ C,, |z/ C,,z/ B,, |z/ F,,z/ C,, |z/ F,,z/ B,, |z/ C,,z/ C,, |z/ C,,z/ B,, |z/ F,,z/ C,, |z/ D,,z/ D,, |z/ C,,z/ C,, |z/ C,,z/ B,, |z/ F,,z/ C,, |z/ F,,z/ B,, |z/ C,,z/ C,, |z/ C,,z/ B,, |z/ F,,z/ C,, |z/ D,,z/ D,, | D,,/ B,,z/ D,, |z/ C,,z/ F,, |z/ C,,z/ C,, |z/ A,,z/ D,, |z/ B,,z/ A,, |z/ C,,z/ F,, |z/ C,,z/ C,, |z/ A,,z/ A,, |z/ B,,z/ D,, |z/ C,,z/ F,, |z/ C,,z/ C,, |z/ A,,z/ D,, |z/ B,,z/ A,, |z/ C,,z/ F,, |z/ C,,z/ C,, |z/ A,,z/ A,, |z/ C,,z/ C,, |z/ C,,z/ B,, |z/ F,,z/ C,, |z/ F,,z/ B,, |z/ C,,z/ C,, |z/ C,,z/ B,, |z/ F,,z/ C,, |z/ D,,z/ D,, |z/ C,,z/ C,, |z/ C,,z/ B,, |z/ F,,z/ C,, |z/ F,,z/ B,, |z/ C,,z/ C,, |z/ C,,z/ B,, |z/ F,,z/ C,, |z/ D,,z/ D,, | D,,/ B,,z/ D,, |z/ C,,z/ F,, |z/ C,,z/ C,, |z/ A,,z/ D,, |z/ B,,z/ A,, |z/ C,,z/ F,, |z/ C,,z/ C,, |z/ A,,z/ A,, |z/ B,,z/ D,, |z/ C,,z/ F,, |z/ C,,z/ C,, |z/ A,,z/ D,, |z/ B,,z/ A,, |z/ C,,z/ F,, |z/ C,,z/ C,, |z/ A,,z/ A,, |z/ C,,z/ C,, |z/ C,,z/ B,, |z/ F,,z/ C,, |z/ F,,z/ B,, |z/ C,,z/ C,, |z/ C,,z/ B,, |z/ F,,z/ C,, |z/ D,,z/ D,, |z/ C,,z/ C,, |z/ C,,z/ B,, |z/ F,,z/ C,, |z/ F,,z/ B,, |z/ C,,z/ C,, |z/ C,,z/ B,, |z/ F,,z/ C,, |z/ D,,z/ D,, | D,,/ B,,z/ D,, |z/ C,,z/ F,, |z/ C,,z/ C,, |z/ A,,z/ D,, |z/ B,,z/ A,, |z/ C,,z/ F,, |z/ C,,z/ C,, |z/ A,,z/ A,, |z/ B,,z/ D,, |z/ C,,z/ F,, |z/ C,,z/ C,, |z/ A,,z/ D,, |z/ B,,z/ A,, |z/ C,,z/ F,, |z/ C,,z/ C,, |z/ A,,z/ A,, |z/ C,,z/ C,, |z/ C,,z/ B,, |z/ F,,z/ C,, |z/ F,,z/ B,, |z/ C,,z/ C,, |z/ C,,z/ B,, |z/ F,,z/ C,, |z/ D,,z/ D,, |z/ C,,z/ C,, |z/ C,,z/ B,, |z/ F,,z/ C,, |z/ F,,z/ B,, |z/ C,,z/ C,, |z/ C,,z/ B,, |z/ F,,z/ C,, |z/ D,,z/ D,, | D,,/ B,,z/ D,, |z/ C,,z/ F,, |z/ C,,z/ C,, |z/ A,,z/ D,, |z/ B,,z/ A,, |z/ C,,z/ F,, |z/ C,,z/ C,, |z/ A,,z/ A,, |z/ B,,z/ D,, |z/ C,,z/ F,, |z/ C,,z/ C,, |z/ A,,z/ D,, |z/ B,,z/ A,, |z/ C,,z/ F,, |z/ C,,z/ C,, |z/ A,,z/ A,, |z/ C,,z/ C,, |z/ C,,z/ B,, |z/ F,,z/ C,, |z/ F,,z/ B,, |z/ C,,z/ C,, |z/ C,,z/ B,, |z/ F,,z/ C,, |z/ D,,z/ D,, |z/ C,,z/ C,, |z/ C,,z/ B,, |z/ F,,z/ C,, |z/ F,,z/ B,, |z/ C,,z/ C,, |z/ C,,z/ B,, |z/ F,,z/ C,, |z/ D,,z/ D,, | D,,/ B,,z/ D,, |z/ C,,z/ F,, |z/ C,,z/ C,, |z/ A,,z/ D,, |z/ B,,z/ A,, |z/ C,,z/ F,, |z/ C,,z/ C,, |z/ A,,z/ A,, |z/ B,,z/ D,, |z/ C,,z/ F,, |z/ C,,z/ C,, |z/ A,,z/ D,, |z/ B,,z/ A,, |z/ C,,z/ F,, |z/ C,,z/ C,, |z/ A,,z/ A,, |z/ C,,z/ C,, |z/ C,,z/ B,, |z/ F,,z/ C,, |z/ F,,z/ B,, |z/ C,,z/ C,, |z/ C,,z/ B,, |z/ F,,z/ C,, |z/ D,,z/ D,, |z/ C,,z/ C,, |z/ C,,z/ B,, |z/ F,,z/ C,, |z/ F,,z/ B,, |z/ C,,z/ C,, |z/ C,,z/ B,, |z/ F,,z/ C,, |z/ D,,z/ D,,|]
[V: P3] z3/ [B,/D/F/]z | [D,/F,/A,/]z [C,/E,/G,/B,/]z | [F,/A,/C/]z [C,/E,/G,/B,/]z | [C,/E,/G,/B,/]z [A,/C/E/]z | [D,/F,/A,/]z [B,/D/F/]z | [A,/C/E/]z [C,/E,/G,/B,/]z | [F,/A,/C/]z [C,/E,/G,/B,/]z | [C,/E,/G,/B,/]z [A,/C/E/]z | [D,/F,/A,/]z [B,/D/F/]z | [D,/F,/A,/]z [C,/E,/G,/B,/]z | [F,/A,/C/]z [C,/E,/G,/B,/]z | [C,/E,/G,/B,/]z [A,/C/E/]z | [D,/F,/A,/]z [B,/D/F/]z | [A,/C/E/]z [C,/E,/G,/B,/]z | [F,/A,/C/]z [C,/E,/G,/B,/]z | [C,/E,/G,/B,/]z [A,/C/E/]z | [D,/F,/A,/]z [C,/E,/G,/B,/]z | [C,/E,/G,/]z [C,/E,/G,/B,/]z | [B,/D/F/]z [F,/A,/C/]z | [C,/E,/G,/B,/]z [F,/A,/C/]z | [B,/D/F/]z [C,/E,/G,/B,/]z | [C,/E,/G,/]z [C,/E,/G,/B,/]z | [B,/D/F/]z [F,/A,/C/]z | [C,/E,/G,/B,/]z [D,/F,/A,/]z | [D,/F,/A,/]z [C,/E,/G,/B,/]z | [C,/E,/G,/]z [C,/E,/G,/B,/]z | [B,/D/F/]z [F,/A,/C/]z | [C,/E,/G,/B,/]z [F,/A,/C/]z | [B,/D/F/]z [C,/E,/G,/B,/]z | [C,/E,/G,/]z [C,/E,/G,/B,/]z | [B,/D/F/]z [F,/A,/C/]z | [C,/E,/G,/B,/]z [D,/F,/A,/]z |z3/ [B,/D/F/]z | [D,/F,/A,/]z [C,/E,/G,/B,/]z | [F,/A,/C/]z [C,/E,/G,/B,/]z | [C,/E,/G,/B,/]z [A,/C/E/]z | [D,/F,/A,/]z [B,/D/F/]z | [A,/C/E/]z [C,/E,/G,/B,/]z | [F,/A,/C/]z [C,/E,/G,/B,/]z | [C,/E,/G,/B,/]z [A,/C/E/]z | [D,/F,/A,/]z [B,/D/F/]z | [D,/F,/A,/]z [C,/E,/G,/B,/]z | [F,/A,/C/]z [C,/E,/G,/B,/]z | [C,/E,/G,/B,/]z [A,/C/E/]z | [D,/F,/A,/]z [B,/D/F/]z | [A,/C/E/]z [C,/E,/G,/B,/]z | [F,/A,/C/]z [C,/E,/G,/B,/]z | [C,/E,/G,/B,/]z [A,/C/E/]z | [D,/F,/A,/]z [C,/E,/G,/B,/]z | [C,/E,/G,/]z [C,/E,/G,/B,/]z | [B,/D/F/]z [F,/A,/C/]z | [C,/E,/G,/B,/]z [F,/A,/C/]z | [B,/D/F/]z [C,/E,/G,/B,/]z | [C,/E,/G,/]z [C,/E,/G,/B,/]z | [B,/D/F/]z [F,/A,/C/]z | [C,/E,/G,/B,/]z [D,/F,/A,/]z | [D,/F,/A,/]z [C,/E,/G,/B,/]z | [C,/E,/G,/]z [C,/E,/G,/B,/]z | [B,/D/F/]z [F,/A,/C/]z | [C,/E,/G,/B,/]z [F,/A,/C/]z | [B,/D/F/]z [C,/E,/G,/B,/]z | [C,/E,/G,/]z [C,/E,/G,/B,/]z | [B,/D/F/]z [F,/A,/C/]z | [C,/E,/G,/B,/]z [D,/F,/A,/]z |z3/ [B,/D/F/]z | [D,/F,/A,/]z [C,/E,/G,/B,/]z | [F,/A,/C/]z [C,/E,/G,/B,/]z | [C,/E,/G,/B,/]z [A,/C/E/]z | [D,/F,/A,/]z [B,/D/F/]z | [A,/C/E/]z [C,/E,/G,/B,/]z | [F,/A,/C/]z [C,/E,/G,/B,/]z | [C,/E,/G,/B,/]z [A,/C/E/]z | [D,/F,/A,/]z [B,/D/F/]z | [D,/F,/A,/]z [C,/E,/G,/B,/]z | [F,/A,/C/]z [C,/E,/G,/B,/]z | [C,/E,/G,/B,/]z [A,/C/E/]z | [D,/F,/A,/]z [B,/D/F/]z | [A,/C/E/]z [C,/E,/G,/B,/]z | [F,/A,/C/]z [C,/E,/G,/B,/]z | [C,/E,/G,/B,/]z [A,/C/E/]z | [D,/F,/A,/]z [C,/E,/G,/B,/]z | [C,/E,/G,/]z [C,/E,/G,/B,/]z | [B,/D/F/]z [F,/A,/C/]z | [C,/E,/G,/B,/]z [F,/A,/C/]z | [B,/D/F/]z [C,/E,/G,/B,/]z | [C,/E,/G,/]z [C,/E,/G,/B,/]z | [B,/D/F/]z [F,/A,/C/]z | [C,/E,/G,/B,/]z [D,/F,/A,/]z | [D,/F,/A,/]z [C,/E,/G,/B,/]z | [C,/E,/G,/]z [C,/E,/G,/B,/]z | [B,/D/F/]z [F,/A,/C/]z | [C,/E,/G,/B,/]z [F,/A,/C/]z | [B,/D/F/]z [C,/E,/G,/B,/]z | [C,/E,/G,/]z [C,/E,/G,/B,/]z | [B,/D/F/]z [F,/A,/C/]z | [C,/E,/G,/B,/]z [D,/F,/A,/]z |z3/ [B,/D/F/]z | [D,/F,/A,/]z [C,/E,/G,/B,/]z | [F,/A,/C/]z [C,/E,/G,/B,/]z | [C,/E,/G,/B,/]z [A,/C/E/]z | [D,/F,/A,/]z [B,/D/F/]z | [A,/C/E/]z [C,/E,/G,/B,/]z | [F,/A,/C/]z [C,/E,/G,/B,/]z | [C,/E,/G,/B,/]z [A,/C/E/]z | [D,/F,/A,/]z [B,/D/F/]z | [D,/F,/A,/]z [C,/E,/G,/B,/]z | [F,/A,/C/]z [C,/E,/G,/B,/]z | [C,/E,/G,/B,/]z [A,/C/E/]z | [D,/F,/A,/]z [B,/D/F/]z | [A,/C/E/]z [C,/E,/G,/B,/]z | [F,/A,/C/]z [C,/E,/G,/B,/]z | [C,/E,/G,/B,/]z [A,/C/E/]z | [D,/F,/A,/]z [C,/E,/G,/B,/]z | [C,/E,/G,/]z [C,/E,/G,/B,/]z | [B,/D/F/]z [F,/A,/C/]z | [C,/E,/G,/B,/]z [F,/A,/C/]z | [B,/D/F/]z [C,/E,/G,/B,/]z | [C,/E,/G,/]z [C,/E,/G,/B,/]z | [B,/D/F/]z [F,/A,/C/]z | [C,/E,/G,/B,/]z [D,/F,/A,/]z | [D,/F,/A,/]z [C,/E,/G,/B,/]z | [C,/E,/G,/]z [C,/E,/G,/B,/]z | [B,/D/F/]z [F,/A,/C/]z | [C,/E,/G,/B,/]z [F,/A,/C/]z | [B,/D/F/]z [C,/E,/G,/B,/]z | [C,/E,/G,/]z [C,/E,/G,/B,/]z | [B,/D/F/]z [F,/A,/C/]z | [C,/E,/G,/B,/]z [D,/F,/A,/]z |z3/ [B,/D/F/]z | [D,/F,/A,/]z [C,/E,/G,/B,/]z | [F,/A,/C/]z [C,/E,/G,/B,/]z | [C,/E,/G,/B,/]z [A,/C/E/]z | [D,/F,/A,/]z [B,/D/F/]z | [A,/C/E/]z [C,/E,/G,/B,/]z | [F,/A,/C/]z [C,/E,/G,/B,/]z | [C,/E,/G,/B,/]z [A,/C/E/]z | [D,/F,/A,/]z [B,/D/F/]z | [D,/F,/A,/]z [C,/E,/G,/B,/]z | [F,/A,/C/]z [C,/E,/G,/B,/]z | [C,/E,/G,/B,/]z [A,/C/E/]z | [D,/F,/A,/]z [B,/D/F/]z | [A,/C/E/]z [C,/E,/G,/B,/]z | [F,/A,/C/]z [C,/E,/G,/B,/]z | [C,/E,/G,/B,/]z [A,/C/E/]z | [D,/F,/A,/]z [C,/E,/G,/B,/]z | [C,/E,/G,/]z [C,/E,/G,/B,/]z | [B,/D/F/]z [F,/A,/C/]z | [C,/E,/G,/B,/]z [F,/A,/C/]z | [B,/D/F/]z [C,/E,/G,/B,/]z | [C,/E,/G,/]z [C,/E,/G,/B,/]z | [B,/D/F/]z [F,/A,/C/]z | [C,/E,/G,/B,/]z [D,/F,/A,/]z | [D,/F,/A,/]z [C,/E,/G,/B,/]z | [C,/E,/G,/]z [C,/E,/G,/B,/]z | [B,/D/F/]z [F,/A,/C/]z | [C,/E,/G,/B,/]z [F,/A,/C/]z | [B,/D/F/]z [C,/E,/G,/B,/]z | [C,/E,/G,/]z [C,/E,/G,/B,/]z | [B,/D/F/]z [F,/A,/C/]z | [C,/E,/G,/B,/]z [D,/F,/A,/]z |z3/ [B,/D/F/]z | [D,/F,/A,/]z [C,/E,/G,/B,/]z | [F,/A,/C/]z [C,/E,/G,/B,/]z | [C,/E,/G,/B,/]z [A,/C/E/]z | [D,/F,/A,/]z [B,/D/F/]z | [A,/C/E/]z [C,/E,/G,/B,/]z | [F,/A,/C/]z [C,/E,/G,/B,/]z | [C,/E,/G,/B,/]z [A,/C/E/]z | [D,/F,/A,/]z [B,/D/F/]z | [D,/F,/A,/]z [C,/E,/G,/B,/]z | [F,/A,/C/]z [C,/E,/G,/B,/]z | [C,/E,/G,/B,/]z [A,/C/E/]z | [D,/F,/A,/]z [B,/D/F/]z | [A,/C/E/]z [C,/E,/G,/B,/]z | [F,/A,/C/]z [C,/E,/G,/B,/]z | [C,/E,/G,/B,/]z [A,/C/E/]z | [D,/F,/A,/]z [C,/E,/G,/B,/]z | [C,/E,/G,/]z [C,/E,/G,/B,/]z | [B,/D/F/]z [F,/A,/C/]z | [C,/E,/G,/B,/]z [F,/A,/C/]z | [B,/D/F/]z [C,/E,/G,/B,/]z | [C,/E,/G,/]z [C,/E,/G,/B,/]z | [B,/D/F/]z [F,/A,/C/]z | [C,/E,/G,/B,/]z [D,/F,/A,/]z | [D,/F,/A,/]z [C,/E,/G,/B,/]z | [C,/E,/G,/]z [C,/E,/G,/B,/]z | [B,/D/F/]z [F,/A,/C/]z | [C,/E,/G,/B,/]z [F,/A,/C/]z | [B,/D/F/]z [C,/E,/G,/B,/]z | [C,/E,/G,/]z [C,/E,/G,/B,/]z | [B,/D/F/]z [F,/A,/C/]z | [C,/E,/G,/B,/]z [D,/F,/A,/]z |z3/ [B,/D/F/]z | [D,/F,/A,/]z [C,/E,/G,/B,/]z | [F,/A,/C/]z [C,/E,/G,/B,/]z | [C,/E,/G,/B,/]z [A,/C/E/]z | [D,/F,/A,/]z [B,/D/F/]z | [A,/C/E/]z [C,/E,/G,/B,/]z | [F,/A,/C/]z [C,/E,/G,/B,/]z | [C,/E,/G,/B,/]z [A,/C/E/]z | [D,/F,/A,/]z [B,/D/F/]z | [D,/F,/A,/]z [C,/E,/G,/B,/]z | [F,/A,/C/]z [C,/E,/G,/B,/]z | [C,/E,/G,/B,/]z [A,/C/E/]z | [D,/F,/A,/]z [B,/D/F/]z | [A,/C/E/]z [C,/E,/G,/B,/]z | [F,/A,/C/]z [C,/E,/G,/B,/]z | [C,/E,/G,/B,/]z [A,/C/E/]z | [D,/F,/A,/]z [C,/E,/G,/B,/]z | [C,/E,/G,/]z [C,/E,/G,/B,/]z | [B,/D/F/]z [F,/A,/C/]z | [C,/E,/G,/B,/]z [F,/A,/C/]z | [B,/D/F/]z [C,/E,/G,/B,/]z | [C,/E,/G,/]z [C,/E,/G,/B,/]z | [B,/D/F/]z [F,/A,/C/]z | [C,/E,/G,/B,/]z [D,/F,/A,/]z | [D,/F,/A,/]z [C,/E,/G,/B,/]z | [C,/E,/G,/]z [C,/E,/G,/B,/]z | [B,/D/F/]z [F,/A,/C/]z | [C,/E,/G,/B,/]z [F,/A,/C/]z | [B,/D/F/]z [C,/E,/G,/B,/]z | [C,/E,/G,/]z [C,/E,/G,/B,/]z | [B,/D/F/]z [F,/A,/C/]z | [C,/E,/G,/B,/]z [D,/F,/A,/]z |z3/ [B,/D/F/]z | [D,/F,/A,/]z [C,/E,/G,/B,/]z | [F,/A,/C/]z [C,/E,/G,/B,/]z | [C,/E,/G,/B,/]z [A,/C/E/]z | [D,/F,/A,/]z [B,/D/F/]z | [A,/C/E/]z [C,/E,/G,/B,/]z | [F,/A,/C/]z [C,/E,/G,/B,/]z | [C,/E,/G,/B,/]z [A,/C/E/]z | [D,/F,/A,/]z [B,/D/F/]z | [D,/F,/A,/]z [C,/E,/G,/B,/]z | [F,/A,/C/]z [C,/E,/G,/B,/]z | [C,/E,/G,/B,/]z [A,/C/E/]z | [D,/F,/A,/]z [B,/D/F/]z | [A,/C/E/]z [C,/E,/G,/B,/]z | [F,/A,/C/]z [C,/E,/G,/B,/]z | [C,/E,/G,/B,/]z [A,/C/E/]z | [D,/F,/A,/]z [C,/E,/G,/B,/]z | [C,/E,/G,/]z [C,/E,/G,/B,/]z | [B,/D/F/]z [F,/A,/C/]z | [C,/E,/G,/B,/]z [F,/A,/C/]z | [B,/D/F/]z [C,/E,/G,/B,/]z | [C,/E,/G,/]z [C,/E,/G,/B,/]z | [B,/D/F/]z [F,/A,/C/]z | [C,/E,/G,/B,/]z [D,/F,/A,/]z | [D,/F,/A,/]z [C,/E,/G,/B,/]z | [C,/E,/G,/]z [C,/E,/G,/B,/]z | [B,/D/F/]z [F,/A,/C/]z | [C,/E,/G,/B,/]z [F,/A,/C/]z | [B,/D/F/]z [C,/E,/G,/B,/]z | [C,/E,/G,/]z [C,/E,/G,/B,/]z | [B,/D/F/]z [F,/A,/C/]z | [C,/E,/G,/B,/]z [D,/F,/A,/]z |z3/ [B,/D/F/]z | [D,/F,/A,/]z [C,/E,/G,/B,/]z | [F,/A,/C/]z [C,/E,/G,/B,/]z | [C,/E,/G,/B,/]z [A,/C/E/]z | [D,/F,/A,/]z [B,/D/F/]z | [A,/C/E/]z [C,/E,/G,/B,/]z | [F,/A,/C/]z [C,/E,/G,/B,/]z | [C,/E,/G,/B,/]z [A,/C/E/]z | [D,/F,/A,/]z [B,/D/F/]z | [D,/F,/A,/]z [C,/E,/G,/B,/]z | [F,/A,/C/]z [C,/E,/G,/B,/]z | [C,/E,/G,/B,/]z [A,/C/E/]z | [D,/F,/A,/]z [B,/D/F/]z | [A,/C/E/]z [C,/E,/G,/B,/]z | [F,/A,/C/]z [C,/E,/G,/B,/]z | [C,/E,/G,/B,/]z [A,/C/E/]z | [D,/F,/A,/]z [C,/E,/G,/B,/]z | [C,/E,/G,/]z [C,/E,/G,/B,/]z | [B,/D/F/]z [F,/A,/C/]z | [C,/E,/G,/B,/]z [F,/A,/C/]z | [B,/D/F/]z [C,/E,/G,/B,/]z | [C,/E,/G,/]z [C,/E,/G,/B,/]z | [B,/D/F/]z [F,/A,/C/]z | [C,/E,/G,/B,/]z [D,/F,/A,/]z | [D,/F,/A,/]z [C,/E,/G,/B,/]z | [C,/E,/G,/]z [C,/E,/G,/B,/]z | [B,/D/F/]z [F,/A,/C/]z | [C,/E,/G,/B,/]z [F,/A,/C/]z | [B,/D/F/]z [C,/E,/G,/B,/]z | [C,/E,/G,/]z [C,/E,/G,/B,/]z | [B,/D/F/]z [F,/A,/C/]z | [C,/E,/G,/B,/]z [D,/F,/A,/]z |z3/ [B,/D/F/]z | [D,/F,/A,/]z [C,/E,/G,/B,/]z | [F,/A,/C/]z [C,/E,/G,/B,/]z | [C,/E,/G,/B,/]z [A,/C/E/]z | [D,/F,/A,/]z [B,/D/F/]z | [A,/C/E/]z [C,/E,/G,/B,/]z | [F,/A,/C/]z [C,/E,/G,/B,/]z | [C,/E,/G,/B,/]z [A,/C/E/]z | [D,/F,/A,/]z [B,/D/F/]z | [D,/F,/A,/]z [C,/E,/G,/B,/]z | [F,/A,/C/]z [C,/E,/G,/B,/]z | [C,/E,/G,/B,/]z [A,/C/E/]z | [D,/F,/A,/]z [B,/D/F/]z | [A,/C/E/]z [C,/E,/G,/B,/]z | [F,/A,/C/]z [C,/E,/G,/B,/]z | [C,/E,/G,/B,/]z [A,/C/E/]z | [D,/F,/A,/]z [C,/E,/G,/B,/]z | [C,/E,/G,/]z [C,/E,/G,/B,/]z | [B,/D/F/]z [F,/A,/C/]z | [C,/E,/G,/B,/]z [F,/A,/C/]z | [B,/D/F/]z [C,/E,/G,/B,/]z | [C,/E,/G,/]z [C,/E,/G,/B,/]z | [B,/D/F/]z [F,/A,/C/]z | [C,/E,/G,/B,/]z [D,/F,/A,/]z | [D,/F,/A,/]z [C,/E,/G,/B,/]z | [C,/E,/G,/]z [C,/E,/G,/B,/]z | [B,/D/F/]z [F,/A,/C/]z | [C,/E,/G,/B,/]z [F,/A,/C/]z | [B,/D/F/]z [C,/E,/G,/B,/]z | [C,/E,/G,/]z [C,/E,/G,/B,/]z | [B,/D/F/]z [F,/A,/C/]z | [C,/E,/G,/B,/]z [D,/F,/A,/]z |z3/ [B,/D/F/]z | [D,/F,/A,/]z [C,/E,/G,/B,/]z | [F,/A,/C/]z [C,/E,/G,/B,/]z | [C,/E,/G,/B,/]z [A,/C/E/]z | [D,/F,/A,/]z [B,/D/F/]z | [A,/C/E/]z [C,/E,/G,/B,/]z | [F,/A,/C/]z [C,/E,/G,/B,/]z | [C,/E,/G,/B,/]z [A,/C/E/]z | [D,/F,/A,/]z [B,/D/F/]z | [D,/F,/A,/]z [C,/E,/G,/B,/]z | [F,/A,/C/]z [C,/E,/G,/B,/]z | [C,/E,/G,/B,/]z [A,/C/E/]z | [D,/F,/A,/]z [B,/D/F/]z | [A,/C/E/]z [C,/E,/G,/B,/]z | [F,/A,/C/]z [C,/E,/G,/B,/]z | [C,/E,/G,/B,/]z [A,/C/E/]z | [D,/F,/A,/]z [C,/E,/G,/B,/]z | [C,/E,/G,/]z [C,/E,/G,/B,/]z | [B,/D/F/]z [F,/A,/C/]z | [C,/E,/G,/B,/]z [F,/A,/C/]z | [B,/D/F/]z [C,/E,/G,/B,/]z | [C,/E,/G,/]z [C,/E,/G,/B,/]z | [B,/D/F/]z [F,/A,/C/]z | [C,/E,/G,/B,/]z [D,/F,/A,/]z | [D,/F,/A,/]z [C,/E,/G,/B,/]z | [C,/E,/G,/]z [C,/E,/G,/B,/]z | [B,/D/F/]z [F,/A,/C/]z | [C,/E,/G,/B,/]z [F,/A,/C/]z | [B,/D/F/]z [C,/E,/G,/B,/]z | [C,/E,/G,/]z [C,/E,/G,/B,/]z | [B,/D/F/]z [F,/A,/C/]z | [C,/E,/G,/B,/]z [D,/F,/A,/]z |z3/ [B,/D/F/]z | [D,/F,/A,/]z [C,/E,/G,/B,/]z | [F,/A,/C/]z [C,/E,/G,/B,/]z | [C,/E,/G,/B,/]z [A,/C/E/]z | [D,/F,/A,/]z [B,/D/F/]z | [A,/C/E/]z [C,/E,/G,/B,/]z | [F,/A,/C/]z [C,/E,/G,/B,/]z | [C,/E,/G,/B,/]z [A,/C/E/]z | [D,/F,/A,/]z [B,/D/F/]z | [D,/F,/A,/]z [C,/E,/G,/B,/]z | [F,/A,/C/]z [C,/E,/G,/B,/]z | [C,/E,/G,/B,/]z [A,/C/E/]z | [D,/F,/A,/]z [B,/D/F/]z | [A,/C/E/]z [C,/E,/G,/B,/]z | [F,/A,/C/]z [C,/E,/G,/B,/]z | [C,/E,/G,/B,/]z [A,/C/E/]z | [D,/F,/A,/]z [C,/E,/G,/B,/]z | [C,/E,/G,/]z [C,/E,/G,/B,/]z | [B,/D/F/]z [F,/A,/C/]z | [C,/E,/G,/B,/]z [F,/A,/C/]z | [B,/D/F/]z [C,/E,/G,/B,/]z | [C,/E,/G,/]z [C,/E,/G,/B,/]z | [B,/D/F/]z [F,/A,/C/]z | [C,/E,/G,/B,/]z [D,/F,/A,/]z | [D,/F,/A,/]z [C,/E,/G,/B,/]z | [C,/E,/G,/]z [C,/E,/G,/B,/]z | [B,/D/F/]z [F,/A,/C/]z | [C,/E,/G,/B,/]z [F,/A,/C/]z | [B,/D/F/]z [C,/E,/G,/B,/]z | [C,/E,/G,/]z [C,/E,/G,/B,/]z | [B,/D/F/]z [F,/A,/C/]z | [C,/E,/G,/B,/]z [D,/F,/A,/]z|]

